X:345
T:Always Welcome Reel
M:4/4
L:1/8
Z:abc by Bruce Osborne - bosborne@kos.net
K:A
AF|E2 EF A2 AB|cBAB ceea|fefg agaf|ecAc BAFA|!
E2 EF A2 AB|cBAB ceea|fefg abaf|ecBc A2:|!
|:cB|ABcd ecBc|ecac ecBc|dcde fefg|agaf edcB|!
ABcd ecBc|ecac ecBc|fefg abaf|ecBc A2:|!
|:(3efg|a2 ga faea|faea fecA|E2 EF AGAB|cBAc BAce|!
a2 ga faea|faea cAce|fefg abaf|ecBc A2:|!
